Simply-Orange-Circles/scalable/apps/gnome-subtitles.svg

<?xml version="1.0" encoding="UTF-8" standalone="no"?><svg xmlns:dc="http://purl.org/dc/elements/1.1/" xmlns:cc="http://creativecommons.org/ns#" xmlns:rdf="http://www.w3.org/1999/02/22-rdf-syntax-ns#" xmlns="http://www.w3.org/2000/svg" width="48" height="48" viewBox="0 0 12.7 12.7"><metadata><rdf:RDF><cc:Work><dc:format>image/svg+xml</dc:format><dc:type rdf:resource="http://purl.org/dc/dcmitype/StillImage"/><dc:title/></cc:Work></rdf:RDF></metadata><path d="M6.34.07a6.29 6.29 0 0 0-6.29 6.3 6.29 6.29 0 0 0 6.3 6.28 6.29 6.29 0 0 0 6.28-6.29A6.29 6.29 0 0 0 6.34.07zm-.01.94a5.4 5.4 0 0 1 5.4 5.4 5.4 5.4 0 0 1-5.4 5.41 5.4 5.4 0 0 1-5.41-5.4A5.4 5.4 0 0 1 6.32 1zM3.55 3.34c-.7 0-1.27.56-1.27 1.27v3.27c0 .7.56 1.28 1.27 1.28h1.83L4.8 10.9l2.52-1.74h1.83c.7 0 1.27-.57 1.27-1.28V4.61c0-.7-.56-1.27-1.27-1.27h-5.6zm-.5.58h1.37c.1 0 .18.08.18.18v.8c0 .1-.08.18-.18.18H3.04a.18.18 0 0 1-.18-.18v-.8c0-.1.08-.18.18-.18zm5.23 0h1.38c.1 0 .18.08.18.18v.8c0 .1-.08.18-.18.18H8.28a.18.18 0 0 1-.18-.18v-.8c0-.1.08-.18.18-.18zM3.04 5.66h1.38c.1 0 .18.09.18.19v.8c0 .1-.08.18-.18.18H3.04a.18.18 0 0 1-.18-.19v-.8c0-.1.08-.18.18-.18zm5.24 0h1.38c.1 0 .18.09.18.19v.8c0 .1-.08.18-.18.18H8.28a.18.18 0 0 1-.18-.19v-.8c0-.1.08-.18.18-.18zM3.04 7.41h1.38c.1 0 .18.08.18.18v.8c0 .1-.08.18-.18.18H3.04a.18.18 0 0 1-.18-.18v-.8c0-.1.08-.18.18-.18zm5.24 0h1.38c.1 0 .18.08.18.18v.8c0 .1-.08.18-.18.18H8.28a.18.18 0 0 1-.18-.18v-.8c0-.1.08-.18.18-.18z" fill="#ff7f2a"/></svg>

<?xml version="1.0" encoding="UTF-8" standalone="no"?>
<svg
   xmlns:dc="http://purl.org/dc/elements/1.1/"
   xmlns:cc="http://creativecommons.org/ns#"
   xmlns:rdf="http://www.w3.org/1999/02/22-rdf-syntax-ns#"
   xmlns:svg="http://www.w3.org/2000/svg"
   xmlns="http://www.w3.org/2000/svg"
   xmlns:sodipodi="http://sodipodi.sourceforge.net/DTD/sodipodi-0.dtd"
   xmlns:inkscape="http://www.inkscape.org/namespaces/inkscape"
   width="48"
   height="48"
   viewBox="0 0 12.7 12.7"
   version="1.1"
   id="svg6"
   sodipodi:docname="gnome-subtitles.svg"
   inkscape:version="0.92.4 (5da689c313, 2019-01-14)">
  <defs
     id="defs10" />
  <sodipodi:namedview
     pagecolor="#ffffff"
     bordercolor="#666666"
     borderopacity="1"
     objecttolerance="10"
     gridtolerance="10"
     guidetolerance="10"
     inkscape:pageopacity="0"
     inkscape:pageshadow="2"
     inkscape:window-width="1087"
     inkscape:window-height="480"
     id="namedview8"
     showgrid="false"
     inkscape:zoom="4.9166667"
     inkscape:cx="2.1355932"
     inkscape:cy="24"
     inkscape:window-x="0"
     inkscape:window-y="25"
     inkscape:window-maximized="0"
     inkscape:current-layer="svg6" />
  <metadata
     id="metadata2">
    <rdf:RDF>
      <cc:Work>
        <dc:format>image/svg+xml</dc:format>
        <dc:type
           rdf:resource="http://purl.org/dc/dcmitype/StillImage" />
        <dc:title></dc:title>
      </cc:Work>
    </rdf:RDF>
  </metadata>
  <path
     d="M 6.34,0.07 A 6.29,6.29 0 0 0 0.05,6.37 6.29,6.29 0 0 0 6.35,12.65 6.29,6.29 0 0 0 12.63,6.36 6.29,6.29 0 0 0 6.34,0.07 Z M 6.33,1.01 a 5.4,5.4 0 0 1 5.4,5.4 5.4,5.4 0 0 1 -5.4,5.41 A 5.4,5.4 0 0 1 0.92,6.42 5.4,5.4 0 0 1 6.32,1 Z M 3.55,3.34 c -0.7,0 -1.27,0.56 -1.27,1.27 v 3.27 c 0,0.7 0.56,1.28 1.27,1.28 H 5.38 L 4.8,10.9 7.32,9.16 h 1.83 c 0.7,0 1.27,-0.57 1.27,-1.28 V 4.61 C 10.42,3.91 9.86,3.34 9.15,3.34 Z M 3.05,3.92 H 4.42 C 4.52,3.92 4.6,4 4.6,4.1 V 4.9 C 4.6,5 4.52,5.08 4.42,5.08 H 3.04 A 0.18,0.18 0 0 1 2.86,4.9 V 4.1 C 2.86,4 2.94,3.92 3.04,3.92 Z m 5.23,0 H 9.66 C 9.76,3.92 9.84,4 9.84,4.1 V 4.9 C 9.84,5 9.76,5.08 9.66,5.08 H 8.28 A 0.18,0.18 0 0 1 8.1,4.9 V 4.1 C 8.1,4 8.18,3.92 8.28,3.92 Z M 3.04,5.66 h 1.38 c 0.1,0 0.18,0.09 0.18,0.19 v 0.8 c 0,0.1 -0.08,0.18 -0.18,0.18 H 3.04 A 0.18,0.18 0 0 1 2.86,6.64 v -0.8 c 0,-0.1 0.08,-0.18 0.18,-0.18 z m 5.24,0 h 1.38 c 0.1,0 0.18,0.09 0.18,0.19 v 0.8 c 0,0.1 -0.08,0.18 -0.18,0.18 H 8.28 A 0.18,0.18 0 0 1 8.1,6.64 V 5.84 C 8.1,5.74 8.18,5.66 8.28,5.66 Z M 3.04,7.41 h 1.38 c 0.1,0 0.18,0.08 0.18,0.18 v 0.8 c 0,0.1 -0.08,0.18 -0.18,0.18 H 3.04 A 0.18,0.18 0 0 1 2.86,8.39 v -0.8 c 0,-0.1 0.08,-0.18 0.18,-0.18 z m 5.24,0 h 1.38 c 0.1,0 0.18,0.08 0.18,0.18 v 0.8 c 0,0.1 -0.08,0.18 -0.18,0.18 H 8.28 A 0.18,0.18 0 0 1 8.1,8.39 v -0.8 c 0,-0.1 0.08,-0.18 0.18,-0.18 z"
     id="path4"
     inkscape:connector-curvature="0"
     style="fill:#ff7f2a" />
</svg>
